nemesis-console-cms/src/main/webapp/resources/img/poll.svg

<?xml version="1.0" encoding="UTF-8" standalone="no"?>
<!-- Generator: Adobe Illustrator 15.0.0, SVG Export Plug-In . SVG Version: 6.00 Build 0)  -->

<svg
   xmlns:dc="http://purl.org/dc/elements/1.1/"
   xmlns:cc="http://creativecommons.org/ns#"
   xmlns:rdf="http://www.w3.org/1999/02/22-rdf-syntax-ns#"
   xmlns:svg="http://www.w3.org/2000/svg"
   xmlns="http://www.w3.org/2000/svg"
   xmlns:sodipodi="http://sodipodi.sourceforge.net/DTD/sodipodi-0.dtd"
   xmlns:inkscape="http://www.inkscape.org/namespaces/inkscape"
   version="1.0"
   id="Layer_1"
   x="0px"
   y="0px"
   width="100px"
   height="100px"
   viewBox="0 0 100 100"
   enable-background="new 0 0 100 100"
   xml:space="preserve"
   inkscape:version="0.91 r13725"
   sodipodi:docname="poll.svg"><metadata
     id="metadata11"><rdf:RDF><cc:Work
         rdf:about=""><dc:format>image/svg+xml</dc:format><dc:type
           rdf:resource="http://purl.org/dc/dcmitype/StillImage" /></cc:Work></rdf:RDF></metadata><defs
     id="defs9" /><sodipodi:namedview
     pagecolor="#ffffff"
     bordercolor="#666666"
     borderopacity="1"
     objecttolerance="10"
     gridtolerance="10"
     guidetolerance="10"
     inkscape:pageopacity="0"
     inkscape:pageshadow="2"
     inkscape:window-width="1535"
     inkscape:window-height="876"
     id="namedview7"
     showgrid="false"
     inkscape:zoom="2.36"
     inkscape:cx="-6.779661"
     inkscape:cy="50"
     inkscape:window-x="65"
     inkscape:window-y="24"
     inkscape:window-maximized="1"
     inkscape:current-layer="Layer_1" /><g
     id="g3"
     style="fill:#555555"
     transform="matrix(0.793432,0,0,0.793432,10.540471,9.6224254)"><path
       d="m 34.601,43.888 -10.241,0 0,-10.32 10.24,0 0,10.32 z m 0,14.8 -10.241,0 0,-10.4 10.24,0 0,10.4 z m 0,14.561 -10.241,0 0,-10.24 10.24,0 0,10.24 z m 41.041,-31.041 -34.161,0 0,-5.2 34.161,0 0,5.2 z m 0,14.721 -34.161,0 0,-5.2 34.161,0 0,5.2 z m 0,13.921 -34.161,0 0,-5.201 34.161,0 0,5.201 z"
       id="path5"
       inkscape:connector-curvature="0" /></g></svg>

<?xml version="1.0" encoding="utf-8"?>
<!-- Generator: Adobe Illustrator 15.0.0, SVG Export Plug-In . SVG Version: 6.00 Build 0)  -->
<!DOCTYPE svg PUBLIC "-//W3C//DTD SVG 1.0//EN" "http://www.w3.org/TR/2001/REC-SVG-20010904/DTD/svg10.dtd">
<svg version="1.0" id="Layer_1" xmlns="http://www.w3.org/2000/svg" xmlns:xlink="http://www.w3.org/1999/xlink" x="0px" y="0px"
	 width="100px" height="100px" viewBox="0 0 100 100" enable-background="new 0 0 100 100" xml:space="preserve">
<g>
	<path d="M34.601,43.888H24.36v-10.32h10.24V43.888z M34.601,58.688H24.36v-10.4h10.24V58.688z M34.601,73.249H24.36v-10.24h10.24
		V73.249z M75.642,42.208H41.481v-5.2h34.161V42.208z M75.642,56.929H41.481v-5.2h34.161V56.929z M75.642,70.85H41.481v-5.201
		h34.161V70.85z"/>
</g>
</svg>
